app/images/dist/phone.svg

<svg width="20" height="20" viewBox="0 0 20 20" fill="none" xmlns="http://www.w3.org/2000/svg">
<path d="M18.3096 15.2751C18.3096 15.5751 18.243 15.8834 18.1013 16.1834C17.9596 16.4834 17.7763 16.7667 17.5346 17.0334C17.1263 17.4834 16.6763 17.8084 16.168 18.0167C15.668 18.2251 15.1263 18.3334 14.543 18.3334C13.693 18.3334 12.7846 18.1334 11.8263 17.7251C10.868 17.3167 9.90964 16.7667 8.95964 16.0751C8.0013 15.3751 7.09297 14.6001 6.2263 13.7417C5.36797 12.8751 4.59297 11.9667 3.9013 11.0167C3.21797 10.0667 2.66797 9.11675 2.26797 8.17508C1.86797 7.22508 1.66797 6.31675 1.66797 5.45008C1.66797 4.88341 1.76797 4.34175 1.96797 3.84175C2.16797 3.33341 2.48464 2.86675 2.9263 2.45008C3.45964 1.92508 4.04297 1.66675 4.65964 1.66675C4.89297 1.66675 5.1263 1.71675 5.33464 1.81675C5.5513 1.91675 5.74297 2.06675 5.89297 2.28341L7.8263 5.00841C7.9763 5.21675 8.08464 5.40841 8.15964 5.59175C8.23464 5.76675 8.2763 5.94175 8.2763 6.10008C8.2763 6.30008 8.21797 6.50008 8.1013 6.69175C7.99297 6.88341 7.83464 7.08341 7.63464 7.28341L7.0013 7.94175C6.90964 8.03341 6.86797 8.14175 6.86797 8.27508C6.86797 8.34175 6.8763 8.40008 6.89297 8.46675C6.91797 8.53341 6.94297 8.58341 6.95964 8.63341C7.10964 8.90841 7.36797 9.26675 7.73464 9.70008C8.10964 10.1334 8.50964 10.5751 8.94297 11.0167C9.39297 11.4584 9.8263 11.8667 10.268 12.2417C10.7013 12.6084 11.0596 12.8584 11.343 13.0084C11.3846 13.0251 11.4346 13.0501 11.493 13.0751C11.5596 13.1001 11.6263 13.1084 11.7013 13.1084C11.843 13.1084 11.9513 13.0584 12.043 12.9667L12.6763 12.3417C12.8846 12.1334 13.0846 11.9751 13.2763 11.8751C13.468 11.7584 13.6596 11.7001 13.868 11.7001C14.0263 11.7001 14.193 11.7334 14.3763 11.8084C14.5596 11.8834 14.7513 11.9917 14.9596 12.1334L17.718 14.0917C17.9346 14.2417 18.0846 14.4167 18.1763 14.6251C18.2596 14.8334 18.3096 15.0417 18.3096 15.2751Z" stroke="#292D32" stroke-width="1.5" stroke-miterlimit="10"/>
</svg>

<svg width="20" height="20" fill="none" xmlns="http://www.w3.org/2000/svg"><path d="M18.31 15.275c0 .3-.067.608-.209.908a3.44 3.44 0 0 1-.566.85c-.409.45-.859.775-1.367.984-.5.208-1.042.316-1.625.316-.85 0-1.758-.2-2.717-.608a14.645 14.645 0 0 1-2.866-1.65 23.952 23.952 0 0 1-2.734-2.333 23.673 23.673 0 0 1-2.325-2.725c-.683-.95-1.233-1.9-1.633-2.842-.4-.95-.6-1.858-.6-2.725 0-.567.1-1.108.3-1.608.2-.509.517-.975.958-1.392.534-.525 1.117-.783 1.734-.783.233 0 .466.05.675.15.216.1.408.25.558.466l1.933 2.725c.15.209.259.4.334.584.075.175.116.35.116.508 0 .2-.058.4-.175.592a2.834 2.834 0 0 1-.466.591L7 7.942a.446.446 0 0 0-.133.333c0 .067.008.125.025.192.025.066.05.116.067.166.15.275.408.634.775 1.067.375.433.775.875 1.208 1.317.45.441.883.85 1.325 1.225.433.366.792.616 1.075.766.042.017.092.042.15.067a.575.575 0 0 0 .208.033c.142 0 .25-.05.342-.141l.633-.625c.209-.209.409-.367.6-.467a1.11 1.11 0 0 1 .592-.175c.158 0 .325.033.508.108.184.075.375.184.584.325l2.758 1.959c.217.15.367.325.458.533.084.208.134.417.134.65Z" stroke="#292D32" stroke-width="1.5" stroke-miterlimit="10"/></svg>
